src/images/tw_share_round.svg

<?xml version="1.0" encoding="UTF-8"?>
<svg width="36px" height="36px" viewBox="0 0 36 36" version="1.1" xmlns="http://www.w3.org/2000/svg" xmlns:xlink="http://www.w3.org/1999/xlink">
    <!-- Generator: Sketch 42 (36781) - http://www.bohemiancoding.com/sketch -->
    <title>Group 10</title>
    <desc>Created with Sketch.</desc>
    <defs>
        <circle id="path-1" cx="18" cy="18" r="18"></circle>
    </defs>
    <g id="Page-1" stroke="none" stroke-width="1" fill="none" fill-rule="evenodd">
        <g id="Social-Share-Header" transform="translate(-68.000000, -408.000000)">
            <g id="Group-10" transform="translate(68.000000, 408.000000)">
                <g id="Oval">
                    <use fill="#D8D8D8" xlink:href="#path-1"></use>
                    <use fill="#55ACEE" xlink:href="#path-1"></use>
                </g>
                <path d="M18.1200283,14.1290412 L18.1607427,14.8004027 L17.4821692,14.7181952 C15.0121615,14.4030663 12.8542977,13.3343684 11.0221491,11.5395039 L10.1264321,10.6489223 L9.89571706,11.3065826 C9.40714412,12.7726169 9.71928795,14.3208588 10.7371482,15.3621542 C11.2800071,15.9376069 11.1578638,16.0198144 10.2214324,15.677283 C9.89571706,15.567673 9.61071618,15.4854655 9.58357324,15.5265692 C9.48857294,15.622478 9.81428824,16.8692923 10.0721462,17.3625375 C10.4250044,18.0476002 11.1442924,18.7189617 11.9314377,19.1162982 L12.5964397,19.431427 L11.8092944,19.4451283 C11.0492921,19.4451283 11.0221491,19.4588295 11.103578,19.7465559 C11.3750074,20.6371375 12.4471536,21.5825241 13.641443,21.9935618 L14.4828742,22.2812882 L13.7500147,22.7197283 C12.6642971,23.3499861 11.3885788,23.7062187 10.1128606,23.7336212 C9.50214441,23.7473225 9,23.8021275 9,23.8432313 C9,23.9802438 10.6557194,24.7475141 11.6192938,25.0489418 C14.5100171,25.9395234 17.9435992,25.5558882 20.5221786,24.0350489 C22.3543271,22.9526497 24.1864757,20.8015526 25.0414783,18.7189617 C25.5029083,17.6091601 25.9643383,15.5813743 25.9643383,14.6085851 C25.9643383,13.9783274 26.0050527,13.8961198 26.7650551,13.1425508 C27.2129136,12.7041106 27.6336292,12.2245667 27.7150581,12.0875541 C27.8507728,11.8272303 27.8372013,11.8272303 27.1450563,12.0601516 C25.9914813,12.4711893 25.8286236,12.4163843 26.3986254,11.7998278 C26.819341,11.3613876 27.3214854,10.5667148 27.3214854,10.3337934 C27.3214854,10.2926897 27.1179133,10.3611959 26.8871983,10.4845072 C26.6429119,10.6215198 26.100053,10.8270386 25.6929089,10.9503499 L24.9600495,11.1832713 L24.2950474,10.7311298 C23.9286177,10.4845072 23.4129019,10.2104821 23.1414724,10.1282746 C22.4493274,9.93645702 21.3907527,9.96385953 20.7664651,10.1830796 C19.0700312,10.7996361 17.9978851,12.3889817 18.1200283,14.1290412 Z" id="Shape" fill="#FFFFFF"></path>
            </g>
        </g>
    </g>
</svg>

<svg viewBox="0 0 36 36" xmlns="http://www.w3.org/2000/svg" xmlns:xlink="http://www.w3.org/1999/xlink"><defs><circle id="a" cx="18" cy="18" r="18"/></defs><g fill="none" fill-rule="evenodd"><use fill="#D8D8D8" xlink:href="#a"/><use fill="#55ACEE" xlink:href="#a"/><path d="M18.12 14.129l.04.671-.678-.082c-2.47-.315-4.628-1.384-6.46-3.178l-.896-.891-.23.658c-.489 1.466-.177 3.014.841 4.055.543.576.42.658-.516.315-.325-.11-.61-.192-.637-.15-.095.095.23 1.342.488 1.836.353.685 1.072 1.356 1.86 1.753l.664.315-.787.014c-.76 0-.787.014-.705.302.271.89 1.343 1.836 2.537 2.247l.842.287-.733.439a7.64 7.64 0 0 1-3.637 1.014c-.61.013-1.113.068-1.113.11 0 .136 1.656.904 2.62 1.205 2.89.89 6.324.507 8.902-1.014 1.832-1.082 3.664-3.233 4.52-5.316.46-1.11.922-3.138.922-4.11 0-.63.041-.713.801-1.466.448-.439.869-.918.95-1.055.136-.26.122-.26-.57-.028-1.154.411-1.316.356-.746-.26.42-.439.922-1.233.922-1.466 0-.041-.203.027-.434.15-.244.138-.787.343-1.194.466l-.733.233-.665-.452c-.366-.246-.882-.52-1.154-.603-.692-.192-1.75-.164-2.375.055-1.696.617-2.768 2.206-2.646 3.946z" fill="#FFF"/></g></svg>
